X:96
T:Reel 96
M:4/4
K:Gmaj
L:1/8
GABc dedB| (3ABc fA gAfA|GABc dedB|cedc BGGz:|dggf g2bg|agab c'afg| (3aba gb agag|fdcA AGGz| (3gab ab c'2bc'|bd'ab c'2bc'| (3d'c'b  (3c'ba bgag|fdcA AGGz|
